icons/actions/22/document-edit.svg

<?xml version="1.0"?>
<!-- Created with Inkscape (http://www.inkscape.org/) -->
<svg xmlns:dc="http://purl.org/dc/elements/1.1/" xmlns:cc="http://creativecommons.org/ns#" xmlns:rdf="http://www.w3.org/1999/02/22-rdf-syntax-ns#" xmlns:svg="http://www.w3.org/2000/svg" xmlns="http://www.w3.org/2000/svg" xmlns:sodipodi="http://sodipodi.sourceforge.net/DTD/sodipodi-0.dtd" xmlns:inkscape="http://www.inkscape.org/namespaces/inkscape" width="22" height="22" id="svg2" version="1.1" inkscape:version="0.48+devel r" sodipodi:docname="edit.svg">
  <defs id="defs4">
    <style type="text/css" id="current-color-scheme">
      .ColorScheme-Text {
        color:#4d4d4d;
      }
      .ColorScheme-Background {
        color:#eff0f1;
      }
      .ColorScheme-Highlight {
        color:#3daee9;
      }
      .ColorScheme-ViewText {
        color:#31363b;
      }
      .ColorScheme-ViewBackground {
        color:#fcfcfc;
      }
      .ColorScheme-ViewHover {
        color:#93cee9;
      }
      .ColorScheme-ViewFocus{
        color:#3daee9;
      }
      .ColorScheme-ButtonText {
        color:#31363b;
      }
      .ColorScheme-ButtonBackground {
        color:#eff0f1;
      }
      .ColorScheme-ButtonHover {
        color:#93cee9;
      }
      .ColorScheme-ButtonFocus{
        color:#3daee9;
      }
      </style>
  </defs>
  <sodipodi:namedview id="base" pagecolor="#ffffff" bordercolor="#666666" borderopacity="1.0" inkscape:pageopacity="0.0" inkscape:pageshadow="2" inkscape:zoom="32" inkscape:cx="7.2080645" inkscape:cy="13.498374" inkscape:document-units="px" inkscape:current-layer="layer1" showgrid="true" width="0px" height="0px" fit-margin-top="0" fit-margin-left="0" fit-margin-right="0" fit-margin-bottom="0" showguides="true" inkscape:window-width="1366" inkscape:window-height="718" inkscape:window-x="-2" inkscape:window-y="23" inkscape:window-maximized="1" inkscape:showpageshadow="false">
    <inkscape:grid type="xygrid" id="grid4124"/>
    <sodipodi:guide position="3,19.000017" orientation="16,0" id="guide4228"/>
    <sodipodi:guide position="3,3.0000174" orientation="0,16" id="guide4230"/>
    <sodipodi:guide position="19,3.0000174" orientation="-16,0" id="guide4232"/>
    <sodipodi:guide position="19,19.000017" orientation="0,-16" id="guide4234"/>
    <sodipodi:guide position="2,20.000017" orientation="18,0" id="guide4236"/>
    <sodipodi:guide position="2,2.0000174" orientation="0,18" id="guide4238"/>
    <sodipodi:guide position="20,2.0000174" orientation="-18,0" id="guide4240"/>
    <sodipodi:guide position="20,20.000017" orientation="0,-18" id="guide4242"/>
    <sodipodi:guide position="3,7" orientation="-12,12" id="guide4264"/>
    <sodipodi:guide position="7,3" orientation="-12,12" id="guide4270"/>
    <sodipodi:guide position="19,15" orientation="12,0" id="guide4272"/>
    <sodipodi:guide position="19,3" orientation="0,-12" id="guide4274"/>
    <sodipodi:guide position="15,19" orientation="0,4" id="guide4280"/>
    <sodipodi:guide position="19,19" orientation="4,0" id="guide4282"/>
    <sodipodi:guide position="7.003266,27.003896" orientation="0.70710678,-0.70710678" id="guide4302"/>
    <sodipodi:guide position="18.292892,14.2929" orientation="-0.7071,0.707107" id="guide4316"/>
    <sodipodi:guide position="18.999999,15" orientation="-4,-4.000033" id="guide4318"/>
    <sodipodi:guide position="14.999966,19" orientation="0.7071,-0.707107" id="guide4320"/>
    <sodipodi:guide position="14.292859,18.2929" orientation="4,4.000033" id="guide4322"/>
    <sodipodi:guide position="16.292892,12.2929" orientation="-0.7071,0.707107" id="guide4336"/>
    <sodipodi:guide position="16.999999,13" orientation="-4,-4.000033" id="guide4338"/>
    <sodipodi:guide position="12.999966,17" orientation="0.7071,-0.707107" id="guide4340"/>
    <sodipodi:guide position="12.292859,16.2929" orientation="4,4.000033" id="guide4342"/>
    <sodipodi:guide position="18.292892,15.703912" orientation="11.996776,-11.996776" id="guide4348"/>
    <sodipodi:guide position="6.2961161,3.7071356" orientation="0.70710678,0.70710678" id="guide4350"/>
    <sodipodi:guide position="7.0032228,3.0000288" orientation="-11.996776,11.996776" id="guide4352"/>
    <sodipodi:guide position="18.999999,14.996805" orientation="-0.70710678,-0.70710678" id="guide4354"/>
    <sodipodi:guide position="3.7070884,6.2961632" orientation="-11.996776,11.996776" id="guide4356"/>
    <sodipodi:guide position="15.703864,18.292939" orientation="-0.70710678,-0.70710678" id="guide4358"/>
    <sodipodi:guide position="14.996758,19.000046" orientation="11.996776,-11.996776" id="guide4360"/>
    <sodipodi:guide position="2.9999817,7.00327" orientation="0.70710678,0.70710678" id="guide4362"/>
  </sodipodi:namedview>
  <metadata id="metadata7">
    <rdf:RDF>
      <cc:Work rdf:about="">
        <dc:format>image/svg+xml</dc:format>
        <dc:type rdf:resource="http://purl.org/dc/dcmitype/StillImage"/>
        <dc:title/>
      </cc:Work>
    </rdf:RDF>
  </metadata>
  <g inkscape:label="Capa 1" inkscape:groupmode="layer" id="layer1" transform="translate(0,-1030.3622)">
    <path style="opacity:1;fill:currentColor;fill-opacity:1;stroke:none" d="M 14.996094 3 L 3.0039062 14.992188 L 3 14.992188 L 3 19 L 4 19 L 6 19 L 7.0078125 19 L 7.0078125 18.996094 L 19 7.0039062 L 18.998047 7.0019531 L 19 7 L 15 3 L 14.998047 3.0019531 L 14.996094 3 z M 12.998047 6.4121094 L 15.587891 9.0019531 L 8 16.589844 L 8 15 L 7 15 L 6 15 L 6 14 L 6 13.410156 L 12.998047 6.4121094 z M 5 14.410156 L 5 16 L 6 16 L 7 16 L 7 17 L 7 17.589844 L 6.5898438 18 L 5 18 L 4 17 L 4 15.410156 L 5 14.410156 z " transform="translate(0,1030.3622)" id="rect4132" class="ColorScheme-Text"/>
  </g>
</svg>

<svg xmlns="http://www.w3.org/2000/svg" viewBox="0 0 22 22">
  <defs id="defs3051">
    <style type="text/css" id="current-color-scheme">
      .ColorScheme-Text {
        color:#4d4d4d;
      }
      </style>
  </defs>
 <path 
    style="fill:currentColor;fill-opacity:1;stroke:none" 
   d="m14.996094 3l-11.992188 11.992188h-.003906v4.00781h1 2 1.00781v-.003906l11.992188-11.992188-.001953-.001953.001953-.001953-4-4-.001953.001953-.001953-.001953m-1.998047 3.412109l2.589844 2.589844-7.587891 7.587891v-1.589844h-1-1v-1-.589844l6.998047-6.998047m-7.998047 7.998047v1.589844h1 1v1 .589844l-.410156.410156h-1.589844l-1-1v-1.589844l1-1" 
    class="ColorScheme-Text"
    />
</svg>
